storage/app/icons/phosphoricons/thin/copy-thin.svg

<svg xmlns="http://www.w3.org/2000/svg" fill="currentColor" viewBox="0 0 256 256"><path d="M216 36H88a4 4 0 0 0-4 4v44H40a4 4 0 0 0-4 4v128a4 4 0 0 0 4 4h128a4 4 0 0 0 4-4v-44h44a4 4 0 0 0 4-4V40a4 4 0 0 0-4-4m-52 176H44V92h120Zm48-48h-40V88a4 4 0 0 0-4-4H92V44h120Z"/></svg>

<svg xmlns="http://www.w3.org/2000/svg" viewBox="0 0 256 256" fill="currentColor"><path d="M216,36H88a4,4,0,0,0-4,4V84H40a4,4,0,0,0-4,4V216a4,4,0,0,0,4,4H168a4,4,0,0,0,4-4V172h44a4,4,0,0,0,4-4V40A4,4,0,0,0,216,36ZM164,212H44V92H164Zm48-48H172V88a4,4,0,0,0-4-4H92V44H212Z"/></svg>
